UI/Travel-Transport-Tracking/SVG/driving_outline_24px.svg

<svg width="24" height="24" viewBox="0 0 24 24" fill="none" xmlns="http://www.w3.org/2000/svg">
<path d="M22.0001 8.00001H19.4501L18.5901 6.82001C18.3999 6.55967 18.1497 6.34913 17.8607 6.20636C17.5716 6.06358 17.2524 5.99279 16.9301 6.00001H7.07005C6.74776 5.99279 6.42849 6.06358 6.13945 6.20636C5.85042 6.34913 5.60018 6.55967 5.41005 6.82001L4.55005 8.00001H2.00005V10H3.10005L2.33005 11.06C2.11312 11.348 1.99714 11.6995 2.00005 12.06V17C2.00005 17.5304 2.21077 18.0392 2.58584 18.4142C2.96091 18.7893 3.46962 19 4.00005 19H7.00005C7.26527 19 7.51962 18.8947 7.70716 18.7071C7.8947 18.5196 8.00005 18.2652 8.00005 18V17H16.0001V18C16.0001 18.2652 16.1054 18.5196 16.2929 18.7071C16.4805 18.8947 16.7348 19 17.0001 19H20.0001C20.5305 19 21.0392 18.7893 21.4143 18.4142C21.7893 18.0392 22.0001 17.5304 22.0001 17V12.06C22.003 11.6995 21.887 11.348 21.6701 11.06L20.9001 10H22.0001V8.00001ZM20.0001 17H18.0001V15H6.00005V17H4.00005V12.16L4.71005 11.16L7.00005 8.00001H17.0001L19.3301 11.18L20.0401 12.18L20.0001 17ZM7.50005 11L6.00005 13H18.0001L16.5001 11H7.50005Z" fill="#0F1621"/>
</svg>

<svg xmlns="http://www.w3.org/2000/svg" width="24" height="24" viewBox="0 0 24 24"><rect width="24" height="24" style="fill:none"/><path d="M22,8H19.45l-.86-1.18A2,2,0,0,0,16.93,6H7.07a2,2,0,0,0-1.66.82L4.55,8H2v2H3.1l-.77,1.06a1.64,1.64,0,0,0-.33,1V17a2,2,0,0,0,2,2H7a1,1,0,0,0,1-1V17h8v1a1,1,0,0,0,1,1h3a2,2,0,0,0,2-2V12.06a1.64,1.64,0,0,0-.33-1L20.9,10H22Zm-2,9H18V15H6v2H4V12.16l.71-1L7,8H17l2.33,3.18.71,1ZM7.5,11,6,13H18l-1.5-2Z"/></svg>
